app/images/3.svg

<svg width="497" height="497" fill="none" xmlns="http://www.w3.org/2000/svg"><path d="M248.082 0C111.07 0 0 111.058 0 248.082c0 137 111.07 248.07 248.082 248.07 137.006 0 248.076-111.07 248.076-248.07C496.158 111.058 385.088 0 248.082 0Z" fill="url(#a)"/><g filter="url(#b)"><path d="M319.637 269.708c-2.637-6.395-6.569-12.231-11.792-17.505-5.226-5.273-11.646-9.961-19.263-14.063 7.91-6.64 13.989-13.451 18.237-20.435 4.248-6.981 6.372-15.355 6.372-25.122 0-7.42-1.465-14.355-4.395-20.801-2.93-6.446-7.276-12.108-13.037-16.992-5.763-4.882-12.55-8.617-20.361-11.206-7.814-2.586-16.457-3.882-25.928-3.882-10.84 0-20.654 1.538-29.443 4.614-8.789 3.076-16.139 7.155-22.046 12.231-5.91 5.079-10.4 10.426-13.477 16.04-3.076 5.617-4.614 10.963-4.614 16.04 0 5.273 1.634 9.499 4.907 12.671 3.271 3.175 6.859 4.761 10.767 4.761 3.319 0 6.249-.586 8.789-1.758 2.538-1.172 4.296-2.783 5.273-4.834a528.45 528.45 0 0 1 5.493-12.158c2-4.296 4.125-7.812 6.372-10.547 2.245-2.733 5.296-4.93 9.155-6.592 3.856-1.659 8.764-2.49 14.722-2.49 8.789 0 15.77 2.71 20.947 8.13 5.175 5.42 7.764 11.891 7.764 19.409 0 9.865-3.248 17.432-9.741 22.705-6.496 5.273-14.234 7.91-23.218 7.91h-6.006c-6.935 0-12.158 1.442-15.674 4.321-3.516 2.882-5.273 6.665-5.273 11.353 0 4.786 1.465 8.521 4.395 11.206 2.93 2.687 7.079 4.028 12.451 4.028 1.172 0 3.809-.194 7.91-.586 4.102-.389 7.127-.586 9.082-.586 11.133 0 19.823 3.248 26.074 9.741 6.249 6.496 9.375 15.454 9.375 26.88 0 7.716-1.831 14.502-5.493 20.361-3.662 5.859-8.302 10.279-13.916 13.257-5.617 2.98-11.451 4.468-17.505 4.468-10.547 0-18.727-3.296-24.536-9.888-5.812-6.592-11.256-16.674-16.333-30.249-.783-2.245-2.442-4.175-4.98-5.786-2.541-1.611-5.177-2.417-7.91-2.417-5.47 0-10.034 1.735-13.696 5.2-3.662 3.468-5.493 8.034-5.493 13.696 0 4.395 1.538 9.961 4.614 16.699 3.076 6.738 7.617 13.257 13.623 19.556 6.006 6.299 13.646 11.549 22.925 15.747 9.276 4.198 19.775 6.299 31.494 6.299 11.522 0 22.046-1.831 31.567-5.493 9.521-3.662 17.748-8.739 24.683-15.234 6.933-6.493 12.181-13.891 15.747-22.192 3.563-8.299 5.347-16.894 5.347-25.781 0-7.419-1.319-14.328-3.955-20.726Z" fill="#fff"/></g><defs><linearGradient id="a" x1="248.079" y1="0" x2="117.5" y2="790.997" gradientUnits="userSpaceOnUse"><stop stop-color="#FFB502"/><stop offset="1" stop-color="#FF4E53"/></linearGradient><filter id="b" x="173.592" y="133.702" width="170" height="239.432" filterUnits="userSpaceOnUse" color-interpolation-filters="sRGB"><feFlood flood-opacity="0" result="BackgroundImageFix"/><feColorMatrix in="SourceAlpha" values="0 0 0 0 0 0 0 0 0 0 0 0 0 0 0 0 0 0 127 0" result="hardAlpha"/><feOffset dx="10" dy="4"/><feGaussianBlur stdDeviation="5"/><feComposite in2="hardAlpha" operator="out"/><feColorMatrix values="0 0 0 0 0 0 0 0 0 0 0 0 0 0 0 0 0 0 0.25 0"/><feBlend in2="BackgroundImageFix" result="effect1_dropShadow_1561_2437"/><feBlend in="SourceGraphic" in2="effect1_dropShadow_1561_2437" result="shape"/></filter></defs></svg>

<svg width="497" height="497" viewBox="0 0 497 497" fill="none" xmlns="http://www.w3.org/2000/svg">
<path d="M248.082 0C111.07 0 0 111.058 0 248.082C0 385.082 111.07 496.152 248.082 496.152C385.088 496.152 496.158 385.082 496.158 248.082C496.158 111.058 385.088 0 248.082 0Z" fill="url(#paint0_linear_1561_2437)"/>
<g filter="url(#filter0_d_1561_2437)">
<path d="M319.637 269.708C317 263.313 313.068 257.477 307.845 252.203C302.619 246.93 296.199 242.242 288.582 238.14C296.492 231.5 302.571 224.689 306.819 217.705C311.067 210.724 313.191 202.35 313.191 192.583C313.191 185.163 311.726 178.228 308.796 171.782C305.866 165.336 301.52 159.674 295.759 154.79C289.996 149.908 283.209 146.173 275.398 143.584C267.584 140.998 258.941 139.702 249.47 139.702C238.63 139.702 228.816 141.24 220.027 144.316C211.238 147.392 203.888 151.471 197.981 156.547C192.071 161.626 187.581 166.973 184.504 172.587C181.428 178.204 179.89 183.55 179.89 188.627C179.89 193.9 181.524 198.126 184.797 201.298C188.068 204.473 191.656 206.059 195.564 206.059C198.883 206.059 201.813 205.473 204.353 204.301C206.891 203.129 208.649 201.518 209.626 199.467C211.285 195.658 213.116 191.607 215.119 187.309C217.119 183.013 219.244 179.497 221.491 176.762C223.736 174.029 226.787 171.832 230.646 170.17C234.502 168.511 239.41 167.68 245.368 167.68C254.157 167.68 261.138 170.39 266.315 175.81C271.49 181.23 274.079 187.701 274.079 195.219C274.079 205.084 270.831 212.651 264.338 217.924C257.842 223.197 250.104 225.834 241.12 225.834H235.114C228.179 225.834 222.956 227.276 219.44 230.155C215.924 233.037 214.167 236.82 214.167 241.508C214.167 246.294 215.632 250.029 218.562 252.714C221.492 255.401 225.641 256.742 231.013 256.742C232.185 256.742 234.822 256.548 238.923 256.156C243.025 255.767 246.05 255.57 248.005 255.57C259.138 255.57 267.828 258.818 274.079 265.311C280.328 271.807 283.454 280.765 283.454 292.191C283.454 299.907 281.623 306.693 277.961 312.552C274.299 318.411 269.659 322.831 264.045 325.809C258.428 328.789 252.594 330.277 246.54 330.277C235.993 330.277 227.813 326.981 222.004 320.389C216.192 313.797 210.748 303.715 205.671 290.14C204.888 287.895 203.229 285.965 200.691 284.354C198.15 282.743 195.514 281.937 192.781 281.937C187.311 281.937 182.747 283.672 179.085 287.137C175.423 290.605 173.592 295.171 173.592 300.833C173.592 305.228 175.13 310.794 178.206 317.532C181.282 324.27 185.823 330.789 191.829 337.088C197.835 343.387 205.475 348.637 214.754 352.835C224.03 357.033 234.529 359.134 246.248 359.134C257.77 359.134 268.294 357.303 277.815 353.641C287.336 349.979 295.563 344.902 302.498 338.407C309.431 331.914 314.679 324.516 318.245 316.215C321.808 307.916 323.592 299.321 323.592 290.434C323.592 283.015 322.273 276.106 319.637 269.708Z" fill="white"/>
</g>
<defs>
<filter id="filter0_d_1561_2437" x="173.592" y="133.702" width="170" height="239.432" filterUnits="userSpaceOnUse" color-interpolation-filters="sRGB">
<feFlood flood-opacity="0" result="BackgroundImageFix"/>
<feColorMatrix in="SourceAlpha" type="matrix" values="0 0 0 0 0 0 0 0 0 0 0 0 0 0 0 0 0 0 127 0" result="hardAlpha"/>
<feOffset dx="10" dy="4"/>
<feGaussianBlur stdDeviation="5"/>
<feComposite in2="hardAlpha" operator="out"/>
<feColorMatrix type="matrix" values="0 0 0 0 0 0 0 0 0 0 0 0 0 0 0 0 0 0 0.25 0"/>
<feBlend mode="normal" in2="BackgroundImageFix" result="effect1_dropShadow_1561_2437"/>
<feBlend mode="normal" in="SourceGraphic" in2="effect1_dropShadow_1561_2437" result="shape"/>
</filter>
<linearGradient id="paint0_linear_1561_2437" x1="248.079" y1="-3.8916e-06" x2="117.5" y2="790.997" gradientUnits="userSpaceOnUse">
<stop stop-color="#FFB502"/>
<stop offset="1" stop-color="#FF4E53"/>
</linearGradient>
</defs>
</svg>
